!!!ONB: MCCC : IJH0403_01 : Extracted Monophonic Melody
!!!COM: Haydn, Joseph
!!!OPR: String Quartet in B minor
!!!OMV: 1
!!!SCT: Hob.III:37 ; Op.33 No.1
!!!ODT: 1781///
**kern
*thru
*k[f#c#]
*b:
*clefG
*M4/4
8dd
=1
4dd
8ff#
16ee
16dd
4cc#
8b
8b
=2
4ee
8gg
16ff#
16ee
4dd
8cc#
8r
=3
8r
8ee
8ee
4r
8gg
8gg
8r
=4
8r
8aa#
8aa#
8ccc#
4eee
4ddd
=5
2..r
8cc#
=6
4cc#
8ee
16dd
16cc#
4b
8a#
8r
=7
8r
8ee
8ee
4r
8gg
8gg
8r
=8
8r
8aa#
8aa#
8ccc#
4eee
4ddd
=9
2..r
8cc
=10
6..cc[
48cc]
16gg
16ee
16cc
4.b
8a#
=11
4b
16.ff#
32gg
16.ff#
32gg
8ff#
8dd
8b
8cc#
=12
8dd
8cc#
8r
8dd
8ee
8dd
4r
=13
4ee
16.bb
32ccc
16.bb
32ccc
8bb
8gg
8ee
8ff#
=14
8gg
8ff#
8r
8gg
8aa
8gg
4r
=15
8.gg
16aa
16.gg
32aa
16.gg
32aa
8ff#
8dd
8b
8ff#[
=16
8ff#]
8ee#
8ee
8dd
8dd
8cc#
8r
8f#
=17
4g#
8a#
8b
8B
8A#
8r
8dd
=18
4dd
8ff#
16ee
16dd
4cc#
8b
8ee
=19
4ee
8gg
16ff#
16ee
4dd
8cc#
8aa
=20
2aa[
8..aa]
32bb
16.aa
32bb
16.aa
32bb
=21
2aa[
8..aa]
32bb
16.aa
32bb
16.aa
32aa
=22
2ddd
2ccc#
=23
2bb
2aa
=24
2gg#
2aa
=25
2cc#
4.dd
8dd
=26
4ee
8gg
16ff#
16ee
4dd
8cc#
8dd
=27
4gg
8bb
16aa
16gg
4gg
8ff#
8aa
=28
8.ddd
16ccc#
16ddd
16ccc#
16ddd
16aa#
8bb
8bb
8bb
8r
=29
8.gg
16ff#
16gg
16aa
16bb
16cc#
8dd
8dd
8dd
8r
=30
16ddd
16ccc#
16ddd
16ccc#
16ddd
16ccc#
16ccc
16aa#
8bb
8bb
8bb
8r
=31
8gg
8gg
8gg
8r
8ff#
8r
8bb
8r
=32
24a
24dd
24ff#
24dd
24ff#
24aa
24dd
24ff#
24aa
24ff#
24aa
24ddd
2ee
=33
8dd
8ddd
8ccc#
8bb
8aa
8gg#
8aa
8bb
=34
4.ee
16aa
16cc#
8dd
8dd
8cc#
8b
=35
8a
8g#
8a
8b
4.e
16a
16c#
=36
8d
8r
8cc#
8r
8dd
8r
8.cc#
32b
32cc#
=37
8dd
8r
8ccc#
8r
8ddd
4.r
=38
2..r
8ff#
=39
4ff#
8aa
16gg
16ff#
4ee
8dd#
8ee
=40
4ff#
4r
8.bb
16aa#
16bb
16gg
16ff#
16ee
=41
8dd#
8dd#
8dd#
8r
8.aa
16gg#
16aa
16bb
16ccc
16ff#
=42
8gg
8gg
8gg
8r
2B
=43
2A
8r
8B
8B
8B
=44
16bb
16aa#
16bb
16ff#
16gg
16dd#
16ee
16a#
16b
16f#
16g
16d#
16e
16g
16b
16ee
=45
16bb
16aa#
16bb
16ff#
16gg#
16dd#
16ee
16a#
16b
16f#
16g#
16d#
16e
16g#
16b
16ee
=46
16bb
16aa#
16bb
16ee#
16gg#
16b
16dd
16g#
16b
16e#
16g#
16B#
16c#
16e#
16g#
16b
=47
16aa
16gg#
16aa
16ee#
16ff#
16b#
16cc#
16g#
16a
16e#
16f#
16a
16cc#
16ff#
16aa
16ff#
=48
16ccc#
16bb#
16ccc#
16gg#
16aa
16gg#
16aa
16ff#
16ccc#
16bb#
16ccc#
16gg#
16aa
16gg#
16aa
16ff#
=49
8ccc#
8ccc#
8ccc#
8ccc#
8ccc#
4r
8a
=50
4a
8cc#
16b
16a
4g#
8f#
8dd
=51
4dd
8ff#
16ee
16dd
4cc#
8b
8ee
=52
2ee[
8..ee]
32ff#
16.ee
32ff#
16.ee
32ff#
=53
3..ee[
96ee]
32ff#
16.ee
32ff#
8ee
8ee
=54
4ee
8gg
16ff#
16ee
4ee
8dd
8dd
=55
4cc#
8ee
16dd
16cc#
4cc#
8b
8b
=56
2b#
4.cc#
8b
=57
2a#
2b
=58
2e#
4.f#
8dd
=59
4dd
8ff#
16ee
16dd
4cc#
8b
8b
=60
4ee
8gg
16ff#
16ee
4dd
8cc#
8r
=61
8r
8ee
8ee
4r
8gg
8gg
8r
=62
8r
8aa#
8aa#
8ccc#
4eee
4ddd
=63
2..r
8cc#
=64
4cc#
8ee
16dd
16cc#
4b
8a#
8r
=65
4.r
8cc
8cc
8gg
8gg
8r
=66
4.r
8cc
8cc
8aa
8aa
8r
=67
4.r
8ee
8ee
8bb
8bb
8r
=68
4.r
8ee#
8ee#
8bb
8bb
8r
=69
8r
8aa#
8aa#
4r
8ee#
8ee#
8r
=70
8r
8ff#
8ff#
4r
8d
8d
8r
=71
8r
8c#
8c#
3..r
24r
=72
4b
16.ff#
32gg
16.ff#
32gg
8ff#
8dd
8b
8cc#
=73
8dd
8cc#
8r
8dd
8ee
8dd
4r
=74
4ee
16.bb
32ccc
16.bb
32ccc
8bb
8gg
8ee
8ff#
=75
8gg
8ff#
8r
8gg
8aa
8gg
4r
=76
8.gg
16aa
16.gg
32aa
16.gg
32aa
8ff#
8dd
8b
8ff#[
=77
8ff#]
8ee#
8ee
8dd
8dd
8cc#
4ff#[
=78
16.ff#]
32gg
16.ff#
32gg
8ff#
8dd
8b
8r
4bb[
=79
16.bb]
32ccc
16.bb
32ccc
8bb
8gg
8ee
8r
4gg[
=80
16.gg]
32aa
16.gg
32aa
8gg
8ee
8cc#
8ee
8gg
8gg
=81
1gg
=82
8.bb
16aa#
16bb
16aa#
16bb
16ff#
8gg
8gg
8gg
8r
=83
8.ee
16dd#
16ee
16ff#
16gg
16a#
8b
8b
8b
8r
=84
16bb
16aa#
16bb
16aa#
16bb
16aa#
16aa
16ff#
8gg
8gg
8gg
8r
=85
8ee
8ee
8ee
8r
8dd
8r
8gg
8r
=86
24d
24f#
24b
24f#
24b
24dd
24b
24dd
24ff#
24dd
24ff#
24bb
2cc#
=87
8b
8bb
8aa
8gg
8ff#
8ee#
8ff#
8gg
=88
4.cc#
16ff#
16a#
8b
8b
8a
8g
=89
8f#
8e#
8f#
8g
4.c#
16f#
16A#
=90
8B
8r
8a#
8r
8b
8r
8.cc#
32b
32cc#
=91
8dd
8r
8aa#
8r
8bb
4.r
==
*-
